static/assets/items/coal.svg

<svg xmlns="http://www.w3.org/2000/svg" viewBox="0 0 32 32"><path d="M23.1864 2.6695v-.5h32v32h-32v-31.5m19.5 27.5q.5 0 .5-.5t.5-.5.5-.5.5-.5.5-.5.5-.5.5-.5.5-.5.5-.5.5-.5.5-.5.5-.5.5-.5.5-.5q.5 0 .625-.375t.375-.625.375-.625q.125-.375.125-.875v-1-1-1-1q0-.5-.125-.875t-.375-.625l-.5-.5-.5-.5-.5-.5-.5-.5-.5-.5-.5-.5-.5-.5-.5-.5-.5-.5-.5-.5-.5-.5-.5-.5-.5-.5-.5-.5-.5-.5-.5-.5-.5-.5q-.25-.25-.625-.375t-.875-.125h-3q-.5 0-.875.125l-.375.125.2813-.0938.2812-.0937-.1875.0625q-.1875.0625-.3125.1875l-.125.125.0625-.0625.0625-.0625-.2812-.2813q-.2813-.2812-.6563-.1562t-.875.125h-3q-.5 0-.5.5t-.5.5-.5.5-.5.5-.5.5-.5.5-.5.5-.5.5-.5.5v15q0 .5.5.5t.5.5.5.5.5.5.5.5.5.5.5.5.5.5.5.5h11M-33.0782 10.0879v-.5h32v32h-32v-31.5m19.5 27.5q.5 0 .5-.5t.5-.5.5-.5.5-.5.5-.5.5-.5.5-.5.5-.5.5-.5.5-.5.5-.5.5-.5.5-.5.5-.5q.5 0 .625-.375t.375-.625.375-.625q.125-.375.125-.875v-1-1-1-1q0-.5-.125-.875t-.375-.625l-.5-.5-.5-.5-.5-.5-.5-.5-.5-.5-.5-.5-.5-.5-.5-.5-.5-.5-.5-.5-.5-.5-.5-.5-.5-.5-.5-.5-.5-.5-.5-.5-.5-.5q-.25-.25-.625-.375t-.875-.125h-3q-.5 0-.875.125l-.375.125.2812-.0938.2813-.0937-.1875.0625q-.1875.0625-.3125.1875l-.125.125.0625-.0625.0625-.0625-.2813-.2813q-.2812-.2812-.6562-.1562t-.875.125h-3q-.5 0-.5.5t-.5.5-.5.5-.5.5-.5.5-.5.5-.5.5-.5.5-.5.5v15q0 .5.5.5t.5.5.5.5.5.5.5.5.5.5.5.5.5.5.5.5h11" fill="none"/><path d="M0 .5V0h32v32H0V.5M19.5 28q.5 0 .5-.5t.5-.5.5-.5.5-.5.5-.5.5-.5.5-.5.5-.5.5-.5.5-.5.5-.5.5-.5.5-.5.5-.5q.5 0 .625-.375T27.5 20t.375-.625Q28 19 28 18.5v-1-1-1-1q0-.5-.125-.875T27.5 13l-.5-.5-.5-.5-.5-.5-.5-.5-.5-.5-.5-.5-.5-.5-.5-.5-.5-.5-.5-.5-.5-.5-.5-.5-.5-.5-.5-.5-.5-.5-.5-.5-.5-.5q-.25-.25-.625-.375T17.5 4h-3q-.5 0-.875.125l-.375.125.2813-.0938.2812-.0937-.1875.0625q-.1875.0625-.3125.1875l-.125.125.0625-.0625.0625-.0625-.2813-.2813Q12.75 3.75 12.375 3.875T11.5 4h-3Q8 4 8 4.5t-.5.5-.5.5-.5.5-.5.5-.5.5-.5.5-.5.5-.5.5v15q0 .5.5.5t.5.5.5.5.5.5.5.5.5.5.5.5.5.5.5.5h11" fill="none"/><path d="M8 4.5q0-.5.5-.5h3q.5 0 .875-.125t.6563.1563l.2812.2812.0625-.0625.0625-.0625-.125.125q-.125.125-.1875.3125l-.0625.1875.0938-.2813.0937-.2812-.125.375Q13 5 12.5 5t-.5.5-.5.5-.5.5-.5.5-.5.5-.5.5-.5.5-.5.5-.5.5v1q0 .5.5.5t.5.5.5.5.5.5.5.5.5.5.5.5.5.5.5.5.5.5.5.5h1q.5 0 .5-.5t.5-.5.5-.5.5-.5.5-.5.5-.5.5-.5.5-.5q.5 0 .5.5t.5.5.5.5.5.5.5.5v3q0 .5.5.5t.5.5.5.5.5.5.5.5h2q.5 0 .875-.125t.6406.1406l.2657.2657.0468-.0782.0469-.0781-.0938.1563q-.0937.1562-.1562.3437l-.0625.1875.0938-.2813.0937-.2812-.125.375Q27 21 26.5 21t-.5.5-.5.5-.5.5-.5.5-.5.5-.5.5-.5.5-.5.5-.5.5-.5.5-.5.5-.5.5-.5.5-.5.5h-11q-.5 0-.5-.5t-.5-.5-.5-.5-.5-.5-.5-.5-.5-.5-.5-.5-.5-.5-.5-.5v-1-1-1-1-1-1-1-1-1-1-1-1-1-1-1q0-.5.5-.5t.5-.5.5-.5.5-.5.5-.5.5-.5.5-.5.5-.5" fill="#2a2a2a"/><path d="M13.125 4.625q.125-.375.5-.5T14.5 4h3q.5 0 .875.125T19 4.5l.5.5.5.5.5.5.5.5.5.5.5.5.5.5.5.5.5.5.5.5.5.5.5.5.5.5.5.5.5.5.5.5.5.5q.25.25.375.625T28 14.5v4q0 .5-.125.875T27.5 20l-.25.25.1875-.1875.1875-.1875L27.5 20q-.125.125-.2188.2813l-.0937.1562.0469-.0781.0468-.0782-.2656-.2656q-.2656-.2656-.6406-.1406Q26 20 25.5 20h-2q-.5 0-.5-.5t-.5-.5-.5-.5-.5-.5-.5-.5v-1-1-1q0-.5-.5-.5t-.5-.5-.5-.5-.5-.5-.5-.5q-.5 0-.5.5t-.5.5-.5.5-.5.5-.5.5-.5.5-.5.5-.5.5h-1q-.5 0-.5-.5t-.5-.5-.5-.5-.5-.5-.5-.5-.5-.5-.5-.5-.5-.5-.5-.5-.5-.5-.5-.5v-1q0-.5.5-.5t.5-.5.5-.5.5-.5.5-.5.5-.5.5-.5.5-.5.5-.5q.5 0 .625-.375" fill="#404040"/></svg>

<?xml version="1.0" encoding="UTF-8" standalone="no"?>
<!-- Created with Inkscape (http://www.inkscape.org/) -->

<svg
   xmlns:dc="http://purl.org/dc/elements/1.1/"
   xmlns:cc="http://creativecommons.org/ns#"
   xmlns:rdf="http://www.w3.org/1999/02/22-rdf-syntax-ns#"
   xmlns:svg="http://www.w3.org/2000/svg"
   xmlns="http://www.w3.org/2000/svg"
   xmlns:sodipodi="http://sodipodi.sourceforge.net/DTD/sodipodi-0.dtd"
   xmlns:inkscape="http://www.inkscape.org/namespaces/inkscape"
   version="1.1"
   id="svg827"
   width="32"
   height="32"
   viewBox="0 0 32 32"
   sodipodi:docname="coal.png"
   inkscape:version="0.92.5 (2060ec1f9f, 2020-04-08)">
  <metadata
     id="metadata833">
    <rdf:RDF>
      <cc:Work
         rdf:about="">
        <dc:format>image/svg+xml</dc:format>
        <dc:type
           rdf:resource="http://purl.org/dc/dcmitype/StillImage" />
        <dc:title></dc:title>
      </cc:Work>
    </rdf:RDF>
  </metadata>
  <defs
     id="defs831" />
  <sodipodi:namedview
     pagecolor="#ffffff"
     bordercolor="#666666"
     borderopacity="1"
     objecttolerance="10"
     gridtolerance="10"
     guidetolerance="10"
     inkscape:pageopacity="0"
     inkscape:pageshadow="2"
     inkscape:window-width="1366"
     inkscape:window-height="705"
     id="namedview829"
     showgrid="false"
     inkscape:zoom="10.429825"
     inkscape:cx="7.3017099"
     inkscape:cy="12.414104"
     inkscape:window-x="-8"
     inkscape:window-y="-8"
     inkscape:window-maximized="1"
     inkscape:current-layer="svg827" />
  <g
     transform="translate(23.186441,2.1694915)"
     id="g1386">
    <path
       style="fill:#000000;fill-opacity:0"
       d="M 0,0.5 V 0 H 0.5 1 1.5 2 2.5 3 3.5 4 4.5 5 5.5 6 6.5 7 7.5 8 8.5 9 9.5 10 10.5 11 11.5 12 12.5 13 13.5 14 14.5 15 15.5 16 16.5 17 17.5 18 18.5 19 19.5 20 20.5 21 21.5 22 22.5 23 23.5 24 24.5 25 25.5 26 26.5 27 27.5 28 28.5 29 29.5 30 30.5 31 31.5 32 V 0.5 1 1.5 2 2.5 3 3.5 4 4.5 5 5.5 6 6.5 7 7.5 8 8.5 9 9.5 10 10.5 11 11.5 12 12.5 13 13.5 14 14.5 15 15.5 16 16.5 17 17.5 18 18.5 19 19.5 20 20.5 21 21.5 22 22.5 23 23.5 24 24.5 25 25.5 26 26.5 27 27.5 28 28.5 29 29.5 30 30.5 31 31.5 32 H 31.5 31 30.5 30 29.5 29 28.5 28 27.5 27 26.5 26 25.5 25 24.5 24 23.5 23 22.5 22 21.5 21 20.5 20 19.5 19 18.5 18 17.5 17 16.5 16 15.5 15 14.5 14 13.5 13 12.5 12 11.5 11 10.5 10 9.5 9 8.5 8 7.5 7 6.5 6 5.5 5 4.5 4 3.5 3 2.5 2 1.5 1 0.5 0 V 31.5 31 30.5 30 29.5 29 28.5 28 27.5 27 26.5 26 25.5 25 24.5 24 23.5 23 22.5 22 21.5 21 20.5 20 19.5 19 18.5 18 17.5 17 16.5 16 15.5 15 14.5 14 13.5 13 12.5 12 11.5 11 10.5 10 9.5 9 8.5 8 7.5 7 6.5 6 5.5 5 4.5 4 3.5 3 2.5 2 1.5 1 0.5 M 19.5,28 Q 20,28 20,27.5 20,27 20.5,27 21,27 21,26.5 21,26 21.5,26 22,26 22,25.5 22,25 22.5,25 23,25 23,24.5 23,24 23.5,24 24,24 24,23.5 24,23 24.5,23 25,23 25,22.5 25,22 25.5,22 26,22 26,21.5 26,21 26.5,21 27,21 27.125,20.625 27.25,20.25 27.5,20 27.75,19.75 27.875,19.375 28,19 28,18.5 q 0,-0.5 0,-1 0,-0.5 0,-1 0,-0.5 0,-1 0,-0.5 0,-1 Q 28,14 27.875,13.625 27.75,13.25 27.5,13 27.25,12.75 27,12.5 26.75,12.25 26.5,12 26.25,11.75 26,11.5 25.75,11.25 25.5,11 25.25,10.75 25,10.5 24.75,10.25 24.5,10 24.25,9.75 24,9.5 23.75,9.25 23.5,9 23.25,8.75 23,8.5 22.75,8.25 22.5,8 22.25,7.75 22,7.5 21.75,7.25 21.5,7 21.25,6.75 21,6.5 20.75,6.25 20.5,6 20.25,5.75 20,5.5 19.75,5.25 19.5,5 19.25,4.75 19,4.5 18.75,4.25 18.375,4.125 18,4 17.5,4 17,4 16.5,4 16,4 15.5,4 15,4 14.5,4 14,4 13.625,4.125 L 13.25,4.25 13.53125,4.15625 13.8125,4.0625 13.625,4.125 Q 13.4375,4.1875 13.3125,4.3125 L 13.1875,4.4375 13.25,4.375 13.3125,4.3125 13.03125,4.03125 Q 12.75,3.75 12.375,3.875 12,4 11.5,4 11,4 10.5,4 10,4 9.5,4 9,4 8.5,4 8,4 8,4.5 8,5 7.5,5 7,5 7,5.5 7,6 6.5,6 6,6 6,6.5 6,7 5.5,7 5,7 5,7.5 5,8 4.5,8 4,8 4,8.5 q 0,0.5 0,1 0,0.5 0,1 0,0.5 0,1 0,0.5 0,1 0,0.5 0,1 0,0.5 0,1 0,0.5 0,1 0,0.5 0,1 0,0.5 0,1 0,0.5 0,1 0,0.5 0,1 0,0.5 0,1 0,0.5 0,1 0,0.5 0,1 0,0.5 0,1 Q 4,24 4.5,24 5,24 5,24.5 5,25 5.5,25 6,25 6,25.5 6,26 6.5,26 7,26 7,26.5 7,27 7.5,27 8,27 8,27.5 8,28 8.5,28 q 0.5,0 1,0 0.5,0 1,0 0.5,0 1,0 0.5,0 1,0 0.5,0 1,0 0.5,0 1,0 0.5,0 1,0 0.5,0 1,0 0.5,0 1,0 0.5,0 1,0 0.5,0 1,0"
       id="path1380"
       inkscape:connector-curvature="0" />
  </g>
  <g
     transform="translate(-33.078216,9.5878886)"
     id="g3504">
    <path
       style="fill:#000000;fill-opacity:0"
       d="M 0,0.5 V 0 H 0.5 1 1.5 2 2.5 3 3.5 4 4.5 5 5.5 6 6.5 7 7.5 8 8.5 9 9.5 10 10.5 11 11.5 12 12.5 13 13.5 14 14.5 15 15.5 16 16.5 17 17.5 18 18.5 19 19.5 20 20.5 21 21.5 22 22.5 23 23.5 24 24.5 25 25.5 26 26.5 27 27.5 28 28.5 29 29.5 30 30.5 31 31.5 32 V 0.5 1 1.5 2 2.5 3 3.5 4 4.5 5 5.5 6 6.5 7 7.5 8 8.5 9 9.5 10 10.5 11 11.5 12 12.5 13 13.5 14 14.5 15 15.5 16 16.5 17 17.5 18 18.5 19 19.5 20 20.5 21 21.5 22 22.5 23 23.5 24 24.5 25 25.5 26 26.5 27 27.5 28 28.5 29 29.5 30 30.5 31 31.5 32 H 31.5 31 30.5 30 29.5 29 28.5 28 27.5 27 26.5 26 25.5 25 24.5 24 23.5 23 22.5 22 21.5 21 20.5 20 19.5 19 18.5 18 17.5 17 16.5 16 15.5 15 14.5 14 13.5 13 12.5 12 11.5 11 10.5 10 9.5 9 8.5 8 7.5 7 6.5 6 5.5 5 4.5 4 3.5 3 2.5 2 1.5 1 0.5 0 V 31.5 31 30.5 30 29.5 29 28.5 28 27.5 27 26.5 26 25.5 25 24.5 24 23.5 23 22.5 22 21.5 21 20.5 20 19.5 19 18.5 18 17.5 17 16.5 16 15.5 15 14.5 14 13.5 13 12.5 12 11.5 11 10.5 10 9.5 9 8.5 8 7.5 7 6.5 6 5.5 5 4.5 4 3.5 3 2.5 2 1.5 1 0.5 M 19.5,28 Q 20,28 20,27.5 20,27 20.5,27 21,27 21,26.5 21,26 21.5,26 22,26 22,25.5 22,25 22.5,25 23,25 23,24.5 23,24 23.5,24 24,24 24,23.5 24,23 24.5,23 25,23 25,22.5 25,22 25.5,22 26,22 26,21.5 26,21 26.5,21 27,21 27.125,20.625 27.25,20.25 27.5,20 27.75,19.75 27.875,19.375 28,19 28,18.5 q 0,-0.5 0,-1 0,-0.5 0,-1 0,-0.5 0,-1 0,-0.5 0,-1 Q 28,14 27.875,13.625 27.75,13.25 27.5,13 27.25,12.75 27,12.5 26.75,12.25 26.5,12 26.25,11.75 26,11.5 25.75,11.25 25.5,11 25.25,10.75 25,10.5 24.75,10.25 24.5,10 24.25,9.75 24,9.5 23.75,9.25 23.5,9 23.25,8.75 23,8.5 22.75,8.25 22.5,8 22.25,7.75 22,7.5 21.75,7.25 21.5,7 21.25,6.75 21,6.5 20.75,6.25 20.5,6 20.25,5.75 20,5.5 19.75,5.25 19.5,5 19.25,4.75 19,4.5 18.75,4.25 18.375,4.125 18,4 17.5,4 17,4 16.5,4 16,4 15.5,4 15,4 14.5,4 14,4 13.625,4.125 L 13.25,4.25 13.53125,4.15625 13.8125,4.0625 13.625,4.125 Q 13.4375,4.1875 13.3125,4.3125 L 13.1875,4.4375 13.25,4.375 13.3125,4.3125 13.03125,4.03125 Q 12.75,3.75 12.375,3.875 12,4 11.5,4 11,4 10.5,4 10,4 9.5,4 9,4 8.5,4 8,4 8,4.5 8,5 7.5,5 7,5 7,5.5 7,6 6.5,6 6,6 6,6.5 6,7 5.5,7 5,7 5,7.5 5,8 4.5,8 4,8 4,8.5 q 0,0.5 0,1 0,0.5 0,1 0,0.5 0,1 0,0.5 0,1 0,0.5 0,1 0,0.5 0,1 0,0.5 0,1 0,0.5 0,1 0,0.5 0,1 0,0.5 0,1 0,0.5 0,1 0,0.5 0,1 0,0.5 0,1 0,0.5 0,1 0,0.5 0,1 Q 4,24 4.5,24 5,24 5,24.5 5,25 5.5,25 6,25 6,25.5 6,26 6.5,26 7,26 7,26.5 7,27 7.5,27 8,27 8,27.5 8,28 8.5,28 q 0.5,0 1,0 0.5,0 1,0 0.5,0 1,0 0.5,0 1,0 0.5,0 1,0 0.5,0 1,0 0.5,0 1,0 0.5,0 1,0 0.5,0 1,0 0.5,0 1,0 0.5,0 1,0"
       id="path3498"
       inkscape:connector-curvature="0" />
  </g>
  <g
     id="g3520">
    <path
       style="fill:#000000;fill-opacity:0"
       d="M 0,0.5 V 0 H 0.5 1 1.5 2 2.5 3 3.5 4 4.5 5 5.5 6 6.5 7 7.5 8 8.5 9 9.5 10 10.5 11 11.5 12 12.5 13 13.5 14 14.5 15 15.5 16 16.5 17 17.5 18 18.5 19 19.5 20 20.5 21 21.5 22 22.5 23 23.5 24 24.5 25 25.5 26 26.5 27 27.5 28 28.5 29 29.5 30 30.5 31 31.5 32 V 0.5 1 1.5 2 2.5 3 3.5 4 4.5 5 5.5 6 6.5 7 7.5 8 8.5 9 9.5 10 10.5 11 11.5 12 12.5 13 13.5 14 14.5 15 15.5 16 16.5 17 17.5 18 18.5 19 19.5 20 20.5 21 21.5 22 22.5 23 23.5 24 24.5 25 25.5 26 26.5 27 27.5 28 28.5 29 29.5 30 30.5 31 31.5 32 H 31.5 31 30.5 30 29.5 29 28.5 28 27.5 27 26.5 26 25.5 25 24.5 24 23.5 23 22.5 22 21.5 21 20.5 20 19.5 19 18.5 18 17.5 17 16.5 16 15.5 15 14.5 14 13.5 13 12.5 12 11.5 11 10.5 10 9.5 9 8.5 8 7.5 7 6.5 6 5.5 5 4.5 4 3.5 3 2.5 2 1.5 1 0.5 0 V 31.5 31 30.5 30 29.5 29 28.5 28 27.5 27 26.5 26 25.5 25 24.5 24 23.5 23 22.5 22 21.5 21 20.5 20 19.5 19 18.5 18 17.5 17 16.5 16 15.5 15 14.5 14 13.5 13 12.5 12 11.5 11 10.5 10 9.5 9 8.5 8 7.5 7 6.5 6 5.5 5 4.5 4 3.5 3 2.5 2 1.5 1 0.5 M 19.5,28 Q 20,28 20,27.5 20,27 20.5,27 21,27 21,26.5 21,26 21.5,26 22,26 22,25.5 22,25 22.5,25 23,25 23,24.5 23,24 23.5,24 24,24 24,23.5 24,23 24.5,23 25,23 25,22.5 25,22 25.5,22 26,22 26,21.5 26,21 26.5,21 27,21 27.125,20.625 27.25,20.25 27.5,20 27.75,19.75 27.875,19.375 28,19 28,18.5 q 0,-0.5 0,-1 0,-0.5 0,-1 0,-0.5 0,-1 0,-0.5 0,-1 Q 28,14 27.875,13.625 27.75,13.25 27.5,13 27.25,12.75 27,12.5 26.75,12.25 26.5,12 26.25,11.75 26,11.5 25.75,11.25 25.5,11 25.25,10.75 25,10.5 24.75,10.25 24.5,10 24.25,9.75 24,9.5 23.75,9.25 23.5,9 23.25,8.75 23,8.5 22.75,8.25 22.5,8 22.25,7.75 22,7.5 21.75,7.25 21.5,7 21.25,6.75 21,6.5 20.75,6.25 20.5,6 20.25,5.75 20,5.5 19.75,5.25 19.5,5 19.25,4.75 19,4.5 18.75,4.25 18.375,4.125 18,4 17.5,4 17,4 16.5,4 16,4 15.5,4 15,4 14.5,4 14,4 13.625,4.125 L 13.25,4.25 13.53125,4.15625 13.8125,4.0625 13.625,4.125 Q 13.4375,4.1875 13.3125,4.3125 L 13.1875,4.4375 13.25,4.375 13.3125,4.3125 13.03125,4.03125 Q 12.75,3.75 12.375,3.875 12,4 11.5,4 11,4 10.5,4 10,4 9.5,4 9,4 8.5,4 8,4 8,4.5 8,5 7.5,5 7,5 7,5.5 7,6 6.5,6 6,6 6,6.5 6,7 5.5,7 5,7 5,7.5 5,8 4.5,8 4,8 4,8.5 q 0,0.5 0,1 0,0.5 0,1 0,0.5 0,1 0,0.5 0,1 0,0.5 0,1 0,0.5 0,1 0,0.5 0,1 0,0.5 0,1 0,0.5 0,1 0,0.5 0,1 0,0.5 0,1 0,0.5 0,1 0,0.5 0,1 0,0.5 0,1 0,0.5 0,1 Q 4,24 4.5,24 5,24 5,24.5 5,25 5.5,25 6,25 6,25.5 6,26 6.5,26 7,26 7,26.5 7,27 7.5,27 8,27 8,27.5 8,28 8.5,28 q 0.5,0 1,0 0.5,0 1,0 0.5,0 1,0 0.5,0 1,0 0.5,0 1,0 0.5,0 1,0 0.5,0 1,0 0.5,0 1,0 0.5,0 1,0 0.5,0 1,0 0.5,0 1,0"
       id="path3514"
       inkscape:connector-curvature="0" />
    <path
       style="fill:#2a2a2a;fill-opacity:1"
       d="M 8,4.5 Q 8,4 8.5,4 9,4 9.5,4 10,4 10.5,4 11,4 11.5,4 12,4 12.375,3.875 12.75,3.75 13.03125,4.03125 L 13.3125,4.3125 13.375,4.25 13.4375,4.1875 13.3125,4.3125 Q 13.1875,4.4375 13.125,4.625 L 13.0625,4.8125 13.15625,4.53125 13.25,4.25 13.125,4.625 Q 13,5 12.5,5 12,5 12,5.5 12,6 11.5,6 11,6 11,6.5 11,7 10.5,7 10,7 10,7.5 10,8 9.5,8 9,8 9,8.5 9,9 8.5,9 8,9 8,9.5 8,10 8,10.5 8,11 8.5,11 9,11 9,11.5 9,12 9.5,12 10,12 10,12.5 10,13 10.5,13 11,13 11,13.5 11,14 11.5,14 12,14 12,14.5 12,15 12.5,15 13,15 13,15.5 13,16 13.5,16 14,16 14.5,16 15,16 15,15.5 15,15 15.5,15 16,15 16,14.5 16,14 16.5,14 17,14 17,13.5 17,13 17.5,13 18,13 18,12.5 18,12 18.5,12 q 0.5,0 0.5,0.5 0,0.5 0.5,0.5 0.5,0 0.5,0.5 0,0.5 0.5,0.5 0.5,0 0.5,0.5 0,0.5 0,1 0,0.5 0,1 0,0.5 0,1 0,0.5 0.5,0.5 0.5,0 0.5,0.5 0,0.5 0.5,0.5 0.5,0 0.5,0.5 0,0.5 0.5,0.5 0.5,0 1,0 0.5,0 1,0 0.5,0 0.875,-0.125 0.375,-0.125 0.640625,0.140625 L 27.28125,20.28125 27.32812,20.20312 27.375,20.125 27.28125,20.28125 Q 27.1875,20.4375 27.125,20.625 L 27.0625,20.8125 27.15625,20.53125 27.25,20.25 27.125,20.625 Q 27,21 26.5,21 26,21 26,21.5 26,22 25.5,22 25,22 25,22.5 25,23 24.5,23 24,23 24,23.5 24,24 23.5,24 23,24 23,24.5 23,25 22.5,25 22,25 22,25.5 22,26 21.5,26 21,26 21,26.5 21,27 20.5,27 20,27 20,27.5 20,28 19.5,28 q -0.5,0 -1,0 -0.5,0 -1,0 -0.5,0 -1,0 -0.5,0 -1,0 -0.5,0 -1,0 -0.5,0 -1,0 -0.5,0 -1,0 -0.5,0 -1,0 -0.5,0 -1,0 -0.5,0 -1,0 Q 9,28 8.5,28 8,28 8,27.5 8,27 7.5,27 7,27 7,26.5 7,26 6.5,26 6,26 6,25.5 6,25 5.5,25 5,25 5,24.5 5,24 4.5,24 4,24 4,23.5 4,23 4,22.5 4,22 4,21.5 4,21 4,20.5 4,20 4,19.5 4,19 4,18.5 4,18 4,17.5 4,17 4,16.5 4,16 4,15.5 4,15 4,14.5 4,14 4,13.5 4,13 4,12.5 4,12 4,11.5 4,11 4,10.5 4,10 4,9.5 4,9 4,8.5 4,8 4.5,8 5,8 5,7.5 5,7 5.5,7 6,7 6,6.5 6,6 6.5,6 7,6 7,5.5 7,5 7.5,5 8,5 8,4.5"
       id="path3516"
       inkscape:connector-curvature="0" />
    <path
       style="fill:#404040;fill-opacity:1"
       d="M 13.125,4.625 Q 13.25,4.25 13.625,4.125 14,4 14.5,4 q 0.5,0 1,0 0.5,0 1,0 0.5,0 1,0 Q 18,4 18.375,4.125 18.75,4.25 19,4.5 q 0.25,0.25 0.5,0.5 0.25,0.25 0.5,0.5 0.25,0.25 0.5,0.5 0.25,0.25 0.5,0.5 0.25,0.25 0.5,0.5 0.25,0.25 0.5,0.5 0.25,0.25 0.5,0.5 0.25,0.25 0.5,0.5 0.25,0.25 0.5,0.5 0.25,0.25 0.5,0.5 0.25,0.25 0.5,0.5 0.25,0.25 0.5,0.5 0.25,0.25 0.5,0.5 0.25,0.25 0.5,0.5 0.25,0.25 0.5,0.5 0.25,0.25 0.5,0.5 0.25,0.25 0.5,0.5 0.25,0.25 0.375,0.625 Q 28,14 28,14.5 q 0,0.5 0,1 0,0.5 0,1 0,0.5 0,1 0,0.5 0,1 0,0.5 -0.125,0.875 Q 27.75,19.75 27.5,20 L 27.25,20.25 27.4375,20.0625 27.625,19.875 27.5,20 q -0.125,0.125 -0.21875,0.28125 l -0.09375,0.15625 0.04687,-0.07813 0.04687,-0.07813 -0.265625,-0.265625 Q 26.75,19.75 26.375,19.875 26,20 25.5,20 25,20 24.5,20 24,20 23.5,20 23,20 23,19.5 23,19 22.5,19 22,19 22,18.5 22,18 21.5,18 21,18 21,17.5 q 0,-0.5 0,-1 0,-0.5 0,-1 0,-0.5 0,-1 Q 21,14 20.5,14 20,14 20,13.5 20,13 19.5,13 19,13 19,12.5 19,12 18.5,12 18,12 18,12.5 18,13 17.5,13 17,13 17,13.5 17,14 16.5,14 16,14 16,14.5 16,15 15.5,15 15,15 15,15.5 15,16 14.5,16 14,16 13.5,16 13,16 13,15.5 13,15 12.5,15 12,15 12,14.5 12,14 11.5,14 11,14 11,13.5 11,13 10.5,13 10,13 10,12.5 10,12 9.5,12 9,12 9,11.5 9,11 8.5,11 8,11 8,10.5 8,10 8,9.5 8,9 8.5,9 9,9 9,8.5 9,8 9.5,8 10,8 10,7.5 10,7 10.5,7 11,7 11,6.5 11,6 11.5,6 12,6 12,5.5 12,5 12.5,5 13,5 13.125,4.625"
       id="path3518"
       inkscape:connector-curvature="0" />
  </g>
</svg>
